media/images/visa.svg

<svg width="36" height="12" viewBox="0 0 36 12" fill="none" xmlns="http://www.w3.org/2000/svg">
<path d="M16.0545 11.5442H13.1736L14.9858 0.224487H17.8202L16.0545 11.5442Z" fill="#0066B2"/>
<path d="M10.8041 0.224487L8.10903 7.99481L7.78377 6.31603L6.80798 1.23175C6.80798 1.23175 6.71505 0.224487 5.46047 0.224487H0.953265L0.906799 0.416347C0.906799 0.416347 2.30078 0.704137 3.88063 1.7114L6.34332 11.5442H9.31715L13.8244 0.272452H10.8041V0.224487Z" fill="#0066B2"/>
<path d="M33.2009 11.5442H35.803L33.5262 0.224487H31.2493C30.1806 0.224487 29.9483 1.08786 29.9483 1.08786L25.6734 11.5442H28.6472L29.2513 9.86544H32.8756L33.2009 11.5442ZM30.0412 7.51516L31.5281 3.29424L32.3645 7.51516H30.0412Z" fill="#0066B2"/>
<path d="M25.9059 2.95833L26.2776 0.51212C26.2776 0.51212 25.0231 0.0324707 23.722 0.0324707C22.328 0.0324707 18.936 0.656015 18.936 3.77374C18.936 6.6996 22.8856 6.74756 22.8856 8.23448C22.8856 9.76935 19.3542 9.48156 18.1925 8.52226L17.7744 11.0644C17.7744 11.0644 19.0289 11.688 20.9805 11.688C22.9321 11.688 25.8594 10.6327 25.8594 7.80279C25.8594 4.87693 21.8634 4.58914 21.8634 3.34205C21.9098 2.09496 24.6978 2.23886 25.9059 2.95833Z" fill="#0066B2"/>
<path d="M7.73639 6.31652L6.80707 1.23224C6.80707 1.23224 6.71414 0.224976 5.45955 0.224976H0.95235L0.905884 0.416835C0.905884 0.416835 3.04332 0.896485 5.13429 2.62322C7.13233 4.25403 7.73639 6.31652 7.73639 6.31652Z" fill="#F9A533"/>
</svg>

<svg width="36" height="12" fill="none" xmlns="http://www.w3.org/2000/svg"><path d="M16.055 11.544h-2.881L14.986.224h2.834l-1.765 11.32zM10.804.224 8.11 7.994l-.325-1.678-.976-5.084S6.715.224 5.46.224H.953L.907.416S2.3.704 3.88 1.711l2.462 9.833h2.974L13.824.272h-3.02V.224zM33.2 11.544h2.603L33.526.224H31.25c-1.068 0-1.3.864-1.3.864l-4.276 10.456h2.974l.604-1.679h3.625l.325 1.68zm-3.159-4.029 1.487-4.22.837 4.22H30.04zm-4.135-4.557.372-2.446s-1.255-.48-2.556-.48c-1.394 0-4.786.624-4.786 3.742 0 2.926 3.95 2.974 3.95 4.46 0 1.535-3.532 1.248-4.694.288l-.418 2.542s1.255.624 3.206.624c1.952 0 4.88-1.055 4.88-3.885 0-2.926-3.997-3.214-3.997-4.46.047-1.248 2.835-1.104 4.043-.385z" fill="#0066B2"/><path d="m7.736 6.317-.929-5.085S6.714.225 5.46.225H.952L.906.417s2.137.48 4.228 2.206c1.998 1.631 2.602 3.694 2.602 3.694z" fill="#F9A533"/></svg>
